**kern	**kern	**dynam
*part1	*part1	*part1
*staff2	*staff1	*
*I"Piano	*	*
*clefF4	*clefG2	*
*k[b-e-a-d-]	*k[b-e-a-d-]	*
=1	=1	=1
4AA- 4A-	4r	.
4r	4e- 4a- 4cc 4ee-	.
4AA- 4A-	4r	.
=	=	=
4C 4c	4r	.
4r	4e- 4a- 4cc 4ee-	.
4C 4c	4r	.
=	=	=
4D- 4d-	4r	.
4r	4f 4a- 4dd- 4ff	.
4EE- 4E-	4g-X 4b- 4ee-	.
=	=	=
4FF 4F	4r	.
4r	4e- 4g-X 4cc	.
4FF 4F	4c 4e- 4an	.
=	=	=
4BB- 4B-	4r	.
4r	4d- 4f 4b-	.
4AA- 4A-	4f 4b- 4dd-	.
=	=	=
4GG 4G	4r	<
4r	4e- 4b- 4ee-	.
4GG 4G	4f 4b- 4dd-	.
=	=	=
4AA- 4A-	4r	.
4r	4e- 4a- 4cc	.
4BB- 4B-	4d- 4b- 4dd-	.
=	=	=
*-	*-	*-
!!!system-decoration: {(s1,s2)}
